X: 223
T:Eddie Kelly's #2
R:jig
M:6/8
K:Em
BEF G2A|Bee edc|~B3 GBG|AFD AFD|
GEF G2A|Bee edc|~B3 GBG|AFD E3:|
gfe fed|Bee Bee|gfe fed| B^cd e2f|
gfe fed|Bee Bee|gfe fed| B^cd ed=c||
